X:1775
T:The Merrymakers' Club
M:C|
L:1/8
N:"collected by J. O'Neill"
B:O'Neill's 1775
R:Hornpipe
Z:"Transcribed by Bob Safranek, rjs@gsp.org"
K:G
   ((3def) | g>ag>e d>gb>d | c>fa>c B>dg>d | B>Gd>B c>Aa>g | (3fgf (3efe d>ef>d|
             g>ag>e d>gb>d | c>fa>c B>dg>d | B>gf>g e>cA>F | G2 G2 G2 :|
|:   d>c   | B>GF>G E>GD>G |B,>DG>B c>BA>G |A>^GA>B c>BA>G | (3ABG (3FGE (3DEC (3B,CA, |
           G,>B,D>G B>dc>B | c>de>f g>fg>e | d>bc>a e>cA>F | G2 G2 G2 :|


